X:1
T:From Thee, Eliza
M:4/4
L:1/8
K:C
c-B|A-^GA-Bc-Bc-d| e2d-c d2c-d| e2 G2 cA GE| G6|c-B|A-^GA-Bc-Bc-d|\
 e2d-c d2 e2| c2B-AA-GE-G| A6|e-f| g3 a g2f-e|f-ed-c d2c-d| e2 G2 c2G-E|\
 G6|c-B|A-^GA-Bc-Bc-d| e2d-c d2 e2| c2B-AA-GE-G| A6|| c2 BA AG EG|\
 A6||
